X: 234
T: 235. Heilig, heilig
N: Derived from chor235.krn
C: Johann Sebastian Bach
%%abc-version 2.0
%%abcx-abcm2ps-target-version 5.9.1 (29 Sep 2008)
%%abc-creator hum2abc beta
%%abcx-conversion-date 2019/03/11 17:28:19
%%abc-edited-by Craig Stuart Sapp
%%humdrum-veritas 1413157999
%%humdrum-veritas-data 1782499222
%%
%%barnumbers 0
L: 1/8
M: C
%%staves [1 2 3 4]
V: 1 clef=treble
V: 2 clef=treble
V: 3 clef=treble-8
V: 4 clef=bass
K: F
[V:1] c2A2G4 | 
[V:2] F2F3E/D/E2 | 
[V:3] ABc3G cB | 
[V:4] F,,G,,A,,B,,C,4 | 
[V:1] !fermata!F4c2d2 | 
[V:2] !fermata!C4G2G2 | 
[V:3] !fermata!A4c3=B | 
[V:4] !fermata!F,,4E,C, G,G,, | 
[V:1] !fermata!c4f2f2 | 
[V:2] !fermata!G4F2G2 | 
[V:3] !fermata!e4A2d2- | 
[V:4] !fermata!C,4D,C, =B,,G,, | 
[V:1] e2e2d3c | 
[V:2] G2EF/G/A2-AG/F/ | 
[V:3] dc/=B/c3=B/A/=B2 | 
[V:4] C,E, A,G, F,D, G,G,, | 
[V:1] !fermata!c4c2d2 | 
[V:2] !fermata!E4F2F2 | 
[V:3] !fermata!G4A2_BA | 
[V:4] !fermata!C,4F,2_B,,2 | 
[V:1] c2B2!fermata!A4 | 
[V:2] E2DC!fermata!C4 | 
[V:3] G2FG!fermata!A4 | 
[V:4] C,2D,E,!fermata!F,4 | 
[V:1] z2G2A=Bc2 | 
[V:2] x2EGF2E2 | 
[V:3] x2c2c2c2 | 
[V:4] z2C,E, F,G, A,G, | 
[V:1] c2=B2!fermata!c4 | 
[V:2] AG/F/G2!fermata!G4 | 
[V:3] d2-de/f/!fermata!e4 | 
[V:4] F,D, G,G,,!fermata!C,4 | 
[V:1] c2d2_B2B2 | 
[V:2] A2A3G/F/G2- | 
[V:3] f2f2d2c2 | 
[V:4] F,E,D,F, G,F,E,C, | 
[V:1] A2B2A2G2 | 
[V:2] GF/E/F3E/D/E2 | 
[V:3] c2Bdc3B | 
[V:4] F,E,D,B,,C,2C,,2 | 
[V:1] !fermata!F4z2A2 | 
[V:2] !fermata!C4x2F2- | 
[V:3] !fermata!A4x2c2- | 
[V:4] !fermata!F,,4z2F,2 | 
[V:1] G4!fermata!F2c2 | 
[V:2] F2E2!fermata!D2G2 | 
[V:3] c3B!fermata!A2G2 | 
[V:4] C,4!fermata!D,2E,2 | 
[V:1] c2=B2!fermata!c2f2 | 
[V:2] A2GF!fermata!E2F2 | 
[V:3] d2d2!fermata!c2c2 | 
[V:4] F,2G,2!fermata!A,2A,2 | 
[V:1] f2e2d4 | 
[V:2] G2G2A2GF | 
[V:3] d3c- c=B/A/=B2 | 
[V:4] =B,2C2F,2G,2 | 
[V:1] !fermata!c4c2dc | 
[V:2] !fermata!E4F2FE | 
[V:3] !fermata!G4A2A2 | 
[V:4] !fermata!C,4F,E,D,F, | 
[V:1] B2B2A2BA | 
[V:2] D2C2CD/E/F2- | 
[V:3] BAG2FAd2- | 
[V:4] G,F, E,C, F,E, D,C, | 
[V:1] G4!fermata!F4 |]  
[V:2] FE/D/E2!fermata!C4 |]  
[V:3] dB Gc/B/!fermata!A4 |]  
[V:4] B,,G,,C,2!fermata!F,,4 |]  



